svg/cozy.svg

<svg xmlns="http://www.w3.org/2000/svg" width="520" height="520" viewBox="0 0 520 520">
  <g fill="#297EF1" fill-rule="evenodd">
    <path d="M349.380239 318L170.619761 318C115.125333 318 70 272.575424 70 216.736432 70 190.108232 80.1866485 164.954707 98.6974613 145.921466 114.912477 129.264514 135.916738 118.895943 158.639046 116.198739 161.322544 93.3298149 171.61562 72.1877117 188.180327 55.8745963 207.094044 37.2386766 232.081741 27 258.544221 27 284.9991 27 309.994399 37.2386766 328.908116 55.8669555 345.404405 72.1113037 355.667073 93.1387948 358.418989 115.885467 409.679117 120.508153 450 163.976684 450 216.744072 450 272.575424 404.84426 318 349.372637 318L349.380239 318zM349.80592 299.150486L350.57629 299.150486C395.01125 299.150486 431.157025 262.564125 431.157025 217.59047 431.157025 172.624602 395.01125 136.038242 350.57629 136.038242L349.767401 136.038242C343.966513 136.038242 339.213328 131.365654 339.082365 125.478194 338.080883 81.5558708 301.950516 45.8417266 258.532445 45.8417266 215.114374 45.8417266 178.968598 81.5714461 177.974821 125.493769 177.843858 131.272202 173.244747 135.929215 167.528599 136.061604 124.141343 137.073999 88.8429752 173.644784 88.8429752 217.598257 88.8429752 262.571913 124.98875 299.158273 169.42371 299.158273L170.078525 299.158273 170.332747 299.142698C170.563858 299.142698 170.794969 299.142698 171.02608 299.158273L349.782808 299.158273 349.80592 299.150486zM310.122856 210.303387L310.122856 210.288117C311.850824 211.418185 312.338005 213.754676 311.2114 215.495592 310.488241 216.595118 309.293126 217.205966 308.075175 217.205966 307.374853 217.205966 306.659307 217.00744 306.035107 216.595118 304.352812 215.495592 302.967392 214.243355 301.810338 212.930033 289.196931 224.360518 273.249381 230.071942 257.301832 230.071942 241.392343 230.071942 225.482855 224.383424 212.892283 213.006388 211.742842 214.304439 210.372647 215.526135 208.736025 216.595118 208.104213 217.00744 207.396278 217.205966 206.695956 217.205966 205.462781 217.205966 204.275278 216.602753 203.559732 215.503228 202.425515 213.769948 202.912695 211.441092 204.648276 210.295752 211.019683 206.134353 211.324171 198.460581 211.324171 198.155157 211.392681 196.093546 213.120649 194.428987 215.153106 194.490071 217.208398 194.543521 218.84502 196.246258 218.806959 198.307868 218.806959 198.58275 218.692776 202.232564 216.941971 206.523769 239.611089 227.92634 275.160042 227.895798 297.783487 206.393963 296.078355 202.163844 295.971784 198.575115 295.95656 198.300233 295.918499 196.238622 297.562733 194.520614 299.63325 194.482436 301.703768 194.451893 303.393675 196.085911 303.439348 198.162792 303.454573 198.498758 303.766673 206.141989 310.122856 210.303387zM84.18875 387.195C83.7354144 387.818336 83.2820856 388.299998 82.82875 388.64 82.3754144 388.980002 81.7237543 389.15 80.87375 389.15 80.0237458 389.15 79.1029216 388.795837 78.11125 388.0875 77.1195784 387.379163 75.8587577 386.600004 74.32875 385.75 72.7987424 384.899996 70.9429276 384.120837 68.76125 383.4125 66.5795724 382.704163 63.9020992 382.35 60.72875 382.35 56.5353957 382.35 52.8237662 383.100826 49.59375 384.6025 46.3637339 386.104174 43.6579276 388.271652 41.47625 391.105 39.2945724 393.938347 37.6512555 397.366647 36.54625 401.39 35.4412445 405.413353 34.88875 409.918308 34.88875 414.905 34.88875 420.118359 35.4837441 424.750813 36.67375 428.8025 37.863756 432.854187 39.5354059 436.254153 41.68875 439.0025 43.8420941 441.750847 46.4629012 443.847493 49.55125 445.2925 52.6395988 446.737507 56.1103974 447.46 59.96375 447.46 63.6471018 447.46 66.6787381 447.020838 69.05875 446.1425 71.4387619 445.264162 73.4220754 444.286672 75.00875 443.21 76.5954246 442.133328 77.8987449 441.155838 78.91875 440.2775 79.9387551 439.399162 80.9587449 438.96 81.97875 438.96 83.2820899 438.96 84.2454136 439.441662 84.86875 440.405L89.11875 445.93C85.3787313 450.520023 80.7037781 453.877489 75.09375 456.0025 69.483722 458.127511 63.5621145 459.19 57.32875 459.19 51.9453898 459.19 46.9446064 458.198343 42.32625 456.215 37.7078936 454.231657 33.698767 451.355852 30.29875 447.5875 26.898733 443.819148 24.2212598 439.186694 22.26625 433.69 20.3112402 428.193306 19.33375 421.931702 19.33375 414.905 19.33375 408.501635 20.2262411 402.580027 22.01125 397.14 23.7962589 391.699973 26.4028995 387.010853 29.83125 383.0725 33.2596005 379.134147 37.4953915 376.060011 42.53875 373.85 47.5821086 371.639989 53.3620508 370.535 59.87875 370.535 65.8854467 370.535 71.2120601 371.51249 75.85875 373.4675 80.5054399 375.42251 84.6137322 378.184982 88.18375 381.755L84.18875 387.195zM138.63125 370.535C144.921281 370.535 150.602058 371.583323 155.67375 373.68 160.745442 375.776677 165.052066 378.751647 168.59375 382.605 172.135434 386.458353 174.855407 391.119139 176.75375 396.5875 178.652093 402.055861 179.60125 408.161633 179.60125 414.905 179.60125 421.705034 178.652093 427.824973 176.75375 433.265 174.855407 438.705027 172.135434 443.351647 168.59375 447.205 165.052066 451.058353 160.745442 454.019156 155.67375 456.0875 150.602058 458.155844 144.921281 459.19 138.63125 459.19 132.341219 459.19 126.660442 458.155844 121.58875 456.0875 116.517058 454.019156 112.196268 451.058353 108.62625 447.205 105.056232 443.351647 102.307926 438.705027 100.38125 433.265 98.4545737 427.824973 97.49125 421.705034 97.49125 414.905 97.49125 408.161633 98.4545737 402.055861 100.38125 396.5875 102.307926 391.119139 105.056232 386.458353 108.62625 382.605 112.196268 378.751647 116.517058 375.776677 121.58875 373.68 126.660442 371.583323 132.341219 370.535 138.63125 370.535zM138.63125 447.375C147.131292 447.375 153.477896 444.527528 157.67125 438.8325 161.864604 433.137472 163.96125 425.190051 163.96125 414.99 163.96125 404.733282 161.864604 396.743362 157.67125 391.02 153.477896 385.296638 147.131292 382.435 138.63125 382.435 134.324562 382.435 130.584599 383.171659 127.41125 384.645 124.237901 386.118341 121.588761 388.243319 119.46375 391.02 117.338739 393.796681 115.752089 397.210813 114.70375 401.2625 113.655411 405.314187 113.13125 409.889974 113.13125 414.99 113.13125 420.090026 113.655411 424.651647 114.70375 428.675 115.752089 432.698353 117.338739 436.084153 119.46375 438.8325 121.588761 441.580847 124.237901 443.691659 127.41125 445.165 130.584599 446.638341 134.324562 447.375 138.63125 447.375zM257.33375 378.355C257.33375 379.431672 257.135419 380.465828 256.73875 381.4575 256.342081 382.449172 255.832086 383.341663 255.20875 384.135L208.62875 446.185 255.63375 446.185 255.63375 458 190.77875 458 190.77875 451.71C190.77875 450.97333 190.962915 450.109172 191.33125 449.1175 191.699585 448.125828 192.223747 447.176671 192.90375 446.27L239.73875 383.795 193.41375 383.795 193.41375 371.895 257.33375 371.895 257.33375 378.355zM299.96125 483.415C299.451247 484.548339 298.813754 485.454997 298.04875 486.135 297.283746 486.815003 296.107925 487.155 294.52125 487.155L283.30125 487.155 299.02625 452.985 263.49625 371.895 276.58625 371.895C277.88959 371.895 278.90958 372.22083 279.64625 372.8725 280.38292 373.52417 280.921248 374.246663 281.26125 375.04L304.29625 429.27C304.806253 430.516673 305.245415 431.763327 305.61375 433.01 305.982085 434.256673 306.307915 435.53166 306.59125 436.835 306.987919 435.53166 307.384581 434.256673 307.78125 433.01 308.177919 431.763327 308.631247 430.48834 309.14125 429.185L331.49625 375.04C331.836252 374.133329 332.417079 373.382503 333.23875 372.7875 334.060421 372.192497 334.952912 371.895 335.91625 371.895L347.98625 371.895 299.96125 483.415zM344.54375 448.65C344.54375 447.176659 344.812914 445.78834 345.35125 444.485 345.889586 443.18166 346.626245 442.048338 347.56125 441.085 348.496255 440.121662 349.61541 439.35667 350.91875 438.79 352.22209 438.22333 353.610409 437.94 355.08375 437.94 356.557091 437.94 357.94541 438.22333 359.24875 438.79 360.55209 439.35667 361.685412 440.121662 362.64875 441.085 363.612088 442.048338 364.362914 443.18166 364.90125 444.485 365.439586 445.78834 365.70875 447.176659 365.70875 448.65 365.70875 450.180008 365.439586 451.582494 364.90125 452.8575 364.362914 454.132506 363.612088 455.251662 362.64875 456.215 361.685412 457.178338 360.55209 457.929164 359.24875 458.4675 357.94541 459.005836 356.557091 459.275 355.08375 459.275 353.610409 459.275 352.22209 459.005836 350.91875 458.4675 349.61541 457.929164 348.496255 457.178338 347.56125 456.215 346.626245 455.251662 345.889586 454.132506 345.35125 452.8575 344.812914 451.582494 344.54375 450.180008 344.54375 448.65zM401.28125 371.895L401.28125 458 386.15125 458 386.15125 371.895 401.28125 371.895zM404.68125 344.865C404.68125 346.338341 404.383753 347.712494 403.78875 348.9875 403.193747 350.262506 402.400422 351.395828 401.40875 352.3875 400.417078 353.379172 399.26959 354.15833 397.96625 354.725 396.66291 355.29167 395.274591 355.575 393.80125 355.575 392.327909 355.575 390.953756 355.29167 389.67875 354.725 388.403744 354.15833 387.270422 353.379172 386.27875 352.3875 385.287078 351.395828 384.50792 350.262506 383.94125 348.9875 383.374581 347.712494 383.09125 346.338341 383.09125 344.865 383.09125 343.391659 383.374581 341.989173 383.94125 340.6575 384.50792 339.325827 385.287078 338.164172 386.27875 337.1725 387.270422 336.180828 388.403744 335.40167 389.67875 334.835 390.953756 334.26833 392.327909 333.985 393.80125 333.985 395.274591 333.985 396.66291 334.26833 397.96625 334.835 399.26959 335.40167 400.417078 336.180828 401.40875 337.1725 402.400422 338.164172 403.193747 339.325827 403.78875 340.6575 404.383753 341.989173 404.68125 343.391659 404.68125 344.865zM461.75875 370.535C468.048781 370.535 473.729558 371.583323 478.80125 373.68 483.872942 375.776677 488.179566 378.751647 491.72125 382.605 495.262934 386.458353 497.982907 391.119139 499.88125 396.5875 501.779593 402.055861 502.72875 408.161633 502.72875 414.905 502.72875 421.705034 501.779593 427.824973 499.88125 433.265 497.982907 438.705027 495.262934 443.351647 491.72125 447.205 488.179566 451.058353 483.872942 454.019156 478.80125 456.0875 473.729558 458.155844 468.048781 459.19 461.75875 459.19 455.468719 459.19 449.787942 458.155844 444.71625 456.0875 439.644558 454.019156 435.323768 451.058353 431.75375 447.205 428.183732 443.351647 425.435426 438.705027 423.50875 433.265 421.582074 427.824973 420.61875 421.705034 420.61875 414.905 420.61875 408.161633 421.582074 402.055861 423.50875 396.5875 425.435426 391.119139 428.183732 386.458353 431.75375 382.605 435.323768 378.751647 439.644558 375.776677 444.71625 373.68 449.787942 371.583323 455.468719 370.535 461.75875 370.535zM461.75875 447.375C470.258793 447.375 476.605396 444.527528 480.79875 438.8325 484.992104 433.137472 487.08875 425.190051 487.08875 414.99 487.08875 404.733282 484.992104 396.743362 480.79875 391.02 476.605396 385.296638 470.258793 382.435 461.75875 382.435 457.452062 382.435 453.712099 383.171659 450.53875 384.645 447.365401 386.118341 444.716261 388.243319 442.59125 391.02 440.466239 393.796681 438.879589 397.210813 437.83125 401.2625 436.782911 405.314187 436.25875 409.889974 436.25875 414.99 436.25875 420.090026 436.782911 424.651647 437.83125 428.675 438.879589 432.698353 440.466239 436.084153 442.59125 438.8325 444.716261 441.580847 447.365401 443.691659 450.53875 445.165 453.712099 446.638341 457.452062 447.375 461.75875 447.375z"/>
  </g>
</svg>

<svg xmlns="http://www.w3.org/2000/svg" width="520" height="520"><path fill="#297EF1" fill-rule="evenodd" d="M349.38 318H170.62C115.125 318 70 272.575 70 216.736c0-26.628 10.187-51.781 28.697-70.815 16.215-16.656 37.22-27.025 59.942-29.722 2.684-22.87 12.977-44.011 29.541-60.324C207.094 37.239 232.082 27 258.544 27c26.455 0 51.45 10.239 70.364 28.867 16.496 16.244 26.76 37.272 29.511 60.018 51.26 4.623 91.581 48.092 91.581 100.86C450 272.574 404.844 318 349.373 318h.007zm.426-18.85h.77c44.435 0 80.581-36.586 80.581-81.56 0-44.965-36.146-81.552-80.58-81.552h-.81c-5.8 0-10.554-4.672-10.685-10.56-1.001-43.922-37.131-79.636-80.55-79.636-43.418 0-79.563 35.73-80.557 79.652-.131 5.778-4.73 10.435-10.446 10.568-43.388 1.012-78.686 37.583-78.686 81.536 0 44.974 36.146 81.56 80.58 81.56h.656l.254-.015c.23 0 .462 0 .693.015h178.757l.023-.008zm-39.683-88.847v-.015c1.728 1.13 2.215 3.467 1.088 5.208a3.763 3.763 0 0 1-3.136 1.71c-.7 0-1.416-.199-2.04-.61a20.69 20.69 0 0 1-4.225-3.666c-12.613 11.43-28.56 17.142-44.508 17.142-15.91 0-31.82-5.689-44.41-17.066a20.513 20.513 0 0 1-4.156 3.59c-.632.411-1.34.61-2.04.61a3.726 3.726 0 0 1-3.136-1.703 3.77 3.77 0 0 1 1.088-5.207c6.372-4.162 6.676-11.835 6.676-12.14.069-2.062 1.797-3.727 3.83-3.666a3.753 3.753 0 0 1 3.653 3.818c0 .275-.114 3.925-1.865 8.216 22.67 21.402 58.218 21.372 80.841-.13-1.705-4.23-1.811-7.819-1.826-8.094a3.752 3.752 0 0 1 3.676-3.818 3.745 3.745 0 0 1 3.806 3.68c.016.337.328 7.98 6.684 12.141zM84.189 387.195c-.454.623-.907 1.105-1.36 1.445-.454.34-1.105.51-1.955.51-.85 0-1.771-.354-2.763-1.063-.991-.708-2.252-1.487-3.782-2.337-1.53-.85-3.386-1.63-5.568-2.337-2.181-.709-4.859-1.063-8.032-1.063-4.194 0-7.905.75-11.135 2.252a21.595 21.595 0 0 0-8.118 6.503c-2.181 2.833-3.825 6.262-4.93 10.285-1.105 4.023-1.657 8.528-1.657 13.515 0 5.213.595 9.846 1.785 13.898 1.19 4.051 2.861 7.451 5.015 10.2 2.153 2.748 4.774 4.844 7.862 6.29 3.089 1.445 6.56 2.167 10.413 2.167 3.683 0 6.715-.44 9.095-1.317 2.38-.879 4.363-1.856 5.95-2.933 1.586-1.077 2.89-2.054 3.91-2.933 1.02-.878 2.04-1.317 3.06-1.317 1.303 0 2.266.482 2.89 1.445l4.25 5.525c-3.74 4.59-8.415 7.947-14.025 10.072-5.61 2.126-11.532 3.188-17.765 3.188-5.384 0-10.384-.992-15.003-2.975-4.618-1.983-8.627-4.86-12.027-8.627-3.4-3.769-6.078-8.401-8.033-13.898-1.955-5.497-2.932-11.758-2.932-18.785 0-6.403.892-12.325 2.677-17.765 1.785-5.44 4.392-10.13 7.82-14.067 3.429-3.939 7.664-7.013 12.708-9.223 5.043-2.21 10.823-3.315 17.34-3.315 6.006 0 11.333.977 15.98 2.932a38.247 38.247 0 0 1 12.325 8.288l-3.995 5.44zm54.442-16.66c6.29 0 11.971 1.048 17.043 3.145 5.071 2.097 9.378 5.072 12.92 8.925 3.541 3.853 6.261 8.514 8.16 13.982 1.898 5.469 2.847 11.575 2.847 18.318 0 6.8-.949 12.92-2.847 18.36-1.899 5.44-4.619 10.087-8.16 13.94-3.542 3.853-7.849 6.814-12.92 8.882-5.072 2.069-10.753 3.103-17.043 3.103-6.29 0-11.97-1.034-17.042-3.103-5.072-2.068-9.393-5.029-12.963-8.882-3.57-3.853-6.318-8.5-8.245-13.94-1.926-5.44-2.89-11.56-2.89-18.36 0-6.743.964-12.85 2.89-18.317 1.927-5.469 4.675-10.13 8.245-13.983 3.57-3.853 7.891-6.828 12.963-8.925 5.071-2.097 10.752-3.145 17.042-3.145zm0 76.84c8.5 0 14.847-2.847 19.04-8.543 4.194-5.695 6.29-13.642 6.29-23.842 0-10.257-2.096-18.247-6.29-23.97-4.193-5.723-10.54-8.585-19.04-8.585-4.306 0-8.046.737-11.22 2.21a21 21 0 0 0-7.947 6.375c-2.125 2.777-3.712 6.19-4.76 10.243-1.049 4.051-1.573 8.627-1.573 13.727s.524 9.662 1.573 13.685c1.048 4.023 2.635 7.41 4.76 10.157 2.125 2.749 4.774 4.86 7.947 6.333 3.174 1.473 6.914 2.21 11.22 2.21zm118.703-69.02c0 1.077-.199 2.11-.595 3.102a10.791 10.791 0 0 1-1.53 2.678l-46.58 62.05h47.005V458h-64.855v-6.29c0-.737.184-1.6.552-2.592a11.29 11.29 0 0 1 1.573-2.848l46.835-62.475h-46.325v-11.9h63.92v6.46zm42.627 105.06c-.51 1.133-1.147 2.04-1.912 2.72-.765.68-1.941 1.02-3.528 1.02h-11.22l15.725-34.17-35.53-81.09h13.09c1.304 0 2.324.326 3.06.978.737.651 1.275 1.374 1.615 2.167l23.035 54.23a39.16 39.16 0 0 1 1.318 3.74 54.01 54.01 0 0 1 .977 3.825c.397-1.303.794-2.578 1.19-3.825a62.63 62.63 0 0 1 1.36-3.825l22.355-54.145c.34-.907.921-1.657 1.743-2.252.821-.596 1.714-.893 2.677-.893h12.07l-48.025 111.52zm44.583-34.765c0-1.473.269-2.862.807-4.165a10.68 10.68 0 0 1 2.21-3.4c.935-.963 2.054-1.728 3.358-2.295a10.332 10.332 0 0 1 4.165-.85c1.473 0 2.861.283 4.165.85a10.903 10.903 0 0 1 3.4 2.295 10.33 10.33 0 0 1 2.252 3.4 10.79 10.79 0 0 1 .808 4.165c0 1.53-.27 2.932-.808 4.208a10.446 10.446 0 0 1-2.252 3.357 10.33 10.33 0 0 1-3.4 2.252 10.801 10.801 0 0 1-4.165.808c-1.474 0-2.862-.27-4.165-.808a9.866 9.866 0 0 1-3.358-2.252 10.807 10.807 0 0 1-2.21-3.357c-.538-1.276-.807-2.678-.807-4.208zm56.737-76.755V458h-15.13v-86.105h15.13zm3.4-27.03c0 1.473-.297 2.847-.892 4.123a11.87 11.87 0 0 1-2.38 3.4c-.992.991-2.14 1.77-3.443 2.337-1.303.567-2.691.85-4.165.85-1.473 0-2.847-.283-4.122-.85a11.206 11.206 0 0 1-3.4-2.338 11.206 11.206 0 0 1-2.338-3.4c-.566-1.275-.85-2.649-.85-4.122 0-1.473.284-2.876.85-4.207a10.924 10.924 0 0 1 2.338-3.486 11.206 11.206 0 0 1 3.4-2.337c1.275-.567 2.649-.85 4.122-.85 1.474 0 2.862.283 4.165.85a11.057 11.057 0 0 1 3.443 2.338 11.528 11.528 0 0 1 2.38 3.485 10.2 10.2 0 0 1 .892 4.207zm57.078 25.67c6.29 0 11.97 1.048 17.042 3.145 5.072 2.097 9.379 5.072 12.92 8.925 3.542 3.853 6.262 8.514 8.16 13.982 1.899 5.469 2.848 11.575 2.848 18.318 0 6.8-.95 12.92-2.848 18.36-1.898 5.44-4.618 10.087-8.16 13.94-3.541 3.853-7.848 6.814-12.92 8.882-5.071 2.069-10.752 3.103-17.042 3.103-6.29 0-11.971-1.034-17.043-3.103-5.071-2.068-9.392-5.029-12.962-8.882-3.57-3.853-6.319-8.5-8.245-13.94-1.927-5.44-2.89-11.56-2.89-18.36 0-6.743.963-12.85 2.89-18.317 1.926-5.469 4.675-10.13 8.245-13.983 3.57-3.853 7.89-6.828 12.962-8.925 5.072-2.097 10.753-3.145 17.043-3.145zm0 76.84c8.5 0 14.846-2.847 19.04-8.543 4.193-5.695 6.29-13.642 6.29-23.842 0-10.257-2.097-18.247-6.29-23.97-4.194-5.723-10.54-8.585-19.04-8.585-4.307 0-8.047.737-11.22 2.21a21 21 0 0 0-7.948 6.375c-2.125 2.777-3.711 6.19-4.76 10.243-1.048 4.051-1.572 8.627-1.572 13.727s.524 9.662 1.572 13.685c1.049 4.023 2.635 7.41 4.76 10.157 2.125 2.749 4.774 4.86 7.948 6.333 3.173 1.473 6.913 2.21 11.22 2.21z"/></svg>
